img/icon/menu-icon/analyze.svg

<svg width="24" height="24" viewBox="0 0 24 24" fill="none" xmlns="http://www.w3.org/2000/svg">
<path d="M9 3.41989L11.029 2.25947C11.633 1.91351 12.368 1.91351 12.972 2.25947L15 3.41989M3 10.3855V8.06363C3 7.31507 3.394 6.62624 4.029 6.26277L6 5.1353M15 20.5801L12.971 21.7405C12.367 22.0865 11.632 22.0865 11.028 21.7405L9 20.5801M21 13.6145V15.9364C21 16.6839 20.606 17.3738 19.971 17.7362L18 18.8647M9.376 10.5029L12 12M12 12L14.624 10.5029M12 12V15.089M12 2.00206V4.79242M12 19.2076V21.9979M3.28 7.01647L5.62 8.34473M18.38 15.6553L20.72 16.9835M21 10.3855V8.06363C21 7.3161 20.606 6.62624 19.971 6.2638L18 5.1353M3 13.6145V15.9364C3 16.6839 3.394 17.3738 4.029 17.7362L6 18.8647M20.72 7.01647L18.38 8.34473M5.62 15.6553L3.28 16.9835" stroke="#848E9F" stroke-width="1.5" stroke-linecap="round" stroke-linejoin="round"/>
</svg>

<svg width="24" height="24" fill="none" xmlns="http://www.w3.org/2000/svg"><path d="M9 3.42l2.029-1.16a1.948 1.948 0 0 1 1.943 0L15 3.42M3 10.386V8.064a2.07 2.07 0 0 1 1.029-1.801L6 5.135m9 15.445l-2.029 1.16a1.948 1.948 0 0 1-1.943 0L9 20.58m12-6.965v2.321c0 .748-.394 1.438-1.029 1.8L18 18.865m-8.624-8.362L12 12m0 0l2.624-1.497M12 12v3.089m0-13.087v2.79m0 14.416v2.79M3.28 7.016l2.34 1.329m12.76 7.31l2.34 1.329m.28-6.599v-2.32c0-.748-.394-1.438-1.029-1.8L18 5.135m-15 8.48v2.321c0 .748.394 1.438 1.029 1.8L6 18.865M20.72 7.016l-2.34 1.329m-12.76 7.31l-2.34 1.329" stroke="#848E9F" stroke-width="1.5" stroke-linecap="round" stroke-linejoin="round"/></svg>
